X:1
T:O Jesu Christ, du Sigesmann
T:Adam Gumpelzhaimer
T:Source : Neüe Teütsche Geistliche Lieder mit 3 stimmen---Augsburg---V.Schönigk---1591. Editor : André Vierendeels (04/07/16).
T:Notes : Original clefs : G2, G2, C3 Editorial accidentals above the staff Text Middle German 
T:O Jesu Christ, du Sigesmann
T:©
T:©
T:©
T:©
C:Adam Gumpelzhaimer
Z:©
%%score [ 1 2 3 ]
L:1/8
Q:1/4=108
M:4/4
K:C
V:1 treble nm="Soprano 1" snm="S 1"
V:2 treble nm="Soprano 2" snm="S 2"
V:3 treble-8 nm="Tenor" snm="T"
V:1
 d4 d2 d2 | e6 f2 | d6 d2 | e8 | z2 A2 ^G2 A2 | B2 c2 B2 Ac | e2 c2 B2 c2 | B2 AG A4 |[M:2/4] B4 | %9
w: O Je- su|Christ, du|Si- ges-|mann,|lasz uns nicht|un- ten li- gen, lasz|uns nicht un- ten|li- * * *|gen,|
w: Mit list er|uns gern|dempf- fen|wolt,|dar- zum mit|gwalt und zor- ne, dar-|zum mit gwalt und|zor- * * *|ne,|
w: Er halt uns|inn der|Wahr- heit|dein,|al- lein inn|dei- nem Wor- te, al-|lein inn dei- nem|Wor- * * *|te,|
[M:4/4] d4 d2 d2 | e6 f2 | d6 d2 | e8 | z2 A2 ^G2 A2 | B2 c2 B2 Ac | e2 c2 B2 c2 | B2 AG A4 | %17
w: wann uns der|al- te|Trach ficht|an,|mit sei- nem|mord und lü- gen, mit|sei- nem mord und|lü- * * *|
w: auff uns ge-|richt hat|der Un-|hold,|sein gif- tig|Pfeil und spor- ne, sein|gif- tig Pfeil und|spor- * * *|
w: dein En- gel|un- ser|Wech- ter|sein,|all- zeit an|al- lem or- te, all-|zeit an al- lem|or- * * *|
[M:2/4] B4 |[M:4/4] z2 d2 d2 e2 | d2 c2 B2 A2 | G2 d2 B2 c2 | B2 e2 d2 c2 | B4 z2 e2 | cBcd edcB | %24
w: gen,|wann fleisch und|blut hin stim- men|ein, wolst Herz mit|dein Geist bei uns|sein, uns|hel- * * * * * * *|
w: ne,|die wolt er|inn uns schies- sen|gern, O Christ, uns|von dir ja- gen|gern, ausz|dei- * * * * * * *|
w: te,|der Teüf- fel|gar kein macht nit|hab, an uns dein|Kin- dern, wen- de|ab, sein|grau- * * * * * * *|
"^#" c2 A2 GABc | d2 B2 A4- | A4 !fermata!B4 |] %27
w: * fen ü- * * *|* ber- win-|* den.|
w: * ner Hand _ _ _|_ uns rau-|* ben|
w: * sam Mordt _ _ _|_ und Lü-|* gen.|
V:2
 B4 A2 B2 | c6 A2 | B2 AG A2 B2 | c2 A2 ^G2 A2 | B2 c2 B2 A2 | z2 A2 ^G2 A2 | B2 A2 G4- | %7
w: O Je- su|Christ, du|Si- * * * ges-|mann, lasz uns nicht|un- ten li- gen,|lasz uns nicht|un- ten li-|
w: Mit list er|uns gern|dempf- * * * fen|wolt, dar- zum mit|gwalt und zor- ne,|dar- zum mit|gwalt und zor-|
w: Er halt uns|inn der|Wahr- * * * heit|dein, al- lein inn|dei- nem Wor- te,|al- lein inn|dei- nem Wor-|
 G2 FE ^F4 |[M:2/4] G4 |[M:4/4] B4 A2 B2 | c6 A2 | B2 AG A2 B2 | c2 A2 ^G2 A2 | B2 c2 B2 A2 | %14
w: |gen,|wann uns der|al- te|Trach _ _ _ ficht|an, mit sei- nem|mord und lü- gen,|
w: |ne,|auff uns ge-|richt hat|der _ _ _ Un-|hold, sein gif- tig|Pfeil und spor- ne,|
w: |te,|dein En- gel|un- ser|Wech- * * * ter|sein, all- zeit an|al- lem or- te,|
 z2 A2 ^G2 A2 | B2 A2 G4- | G2 FE ^F4 |[M:2/4] G4 |[M:4/4] z2 B2 B2 c2 | B2 e2 d2 c2 | %20
w: mit sei- nem|mord und lü-||gen,|wann fleisch und|blut hin stim- men|
w: sein gif- tig|Pfeil und spor-||ne,|die wolt er|inn uns schies- sen|
w: all- zeit an|al- lem Wor-||te,|der Teüf- fel|gar kein macht nit|
 B2 B2 d2 e2 | d2 c2 B2 A2 | G4 z4 | z2 e2 cBcd | e2 ^c2 d4 | B2 G4 FE | ^F4 !fermata!G4 |] %27
w: ein, wolst Herz mit|dein Geist bei uns|sein,|uns hel- * * *|* fen ü-|ber win- * *|* den.|
w: gern, O Christ, uns|von dir ja- gen|gern,|ausz dei- * * *|* ner Hand|uns rau- * *|* ben.|
w: hab, an uns dein|Kin- dern, wen- de|ab,|sein grau- * * *|* sam Mordt|und Lü- * *|* gen.|
V:3
 g4 ^f2 g2 | c6 f2 | g2 fe f2 g2 | c4 z2 A2 | ^G2 A2 B2 c2 | B2 A2 z2 A2 | ^G2 A2 e2 c2 | d8 | %8
w: O Je- su|Christ, du|Si- * * * ges-|mann, lasz|uns nicht un- ten|li- gen, lasz|uns nicht un- ten|li-|
w: Mit list er|uns gern|dempf- * * * fen|wolt, dar-|zum mit gwalt und|zor- ne, dar-|zum mit gwalt und|zor-|
w: Er halt uns|inn der|Wahr- * * * heit|dein, al-|lein inn dei- nem|Wor- te, al-|lein inn dei- nem|Wor-|
[M:2/4] G4 |[M:4/4] g4 ^f2 g2 | c6 f2 | g2 fe f2 g2 | c4 z2 A2 | ^G2 A2 B2 c2 | B2 A2 z2 A2 | %15
w: gen,|wann uns der|al- ten|Trach- * * * ficht|an, mit|sei- nem mord und|lü- gen, mit|
w: ne,|auff uns ge-|richt hat|der _ _ _ Un-|hold, sein|gif- tig Pfeil und|spor- ne, sein|
w: te,|dein En- gel|un- ser|Wech- * * * teer|sein, all-|zeit an al- lem|or- te, all-|
 ^G2 A2 e2 c2 | d8 |[M:2/4] G4 |[M:4/4] z2 g2 g2 c2 | g2 c2 g2 a2 |"^#" e2 g2 g2 c2 | g2 c2 g2 a2 | %22
w: sei- nem mord und|lü-|gen,|wann fleisch und|blut hin stim- men|ein, wolst Herz mit|dein Geist bei uns|
w: gif- tig Pfeil und|spor-|ne,|die wolt er|inn uns schies- sen|gern, O Christ, uns|von dir ja- gen|
w: zeit an al- lem|or-|te,|der Teüf- fel|gar kein macht nit|hab, an uns dein|Kin- dern, wen- de|
 e2 e2 cBcd | edcB A4- | A2 A2 B4 | G4 d4- | d4 !fermata!G4 |] %27
w: sein, uns hel- * * *|* * * * fen|_ fen ü-|ber win-|* den.|
w: gern, ausz dei- * * *||* ner Hand|uns rau-|* ben.|
w: ab, sein grau- * * *||* sam Mordt|und Lü-|* gen.|

